build/svg/cmd/32/photoalbumdialog.svg

<?xml version="1.0" encoding="UTF-8" standalone="no"?>
<svg
   xmlns:dc="http://purl.org/dc/elements/1.1/"
   xmlns:cc="http://creativecommons.org/ns#"
   xmlns:rdf="http://www.w3.org/1999/02/22-rdf-syntax-ns#"
   xmlns:svg="http://www.w3.org/2000/svg"
   xmlns="http://www.w3.org/2000/svg"
   xmlns:sodipodi="http://sodipodi.sourceforge.net/DTD/sodipodi-0.dtd"
   xmlns:inkscape="http://www.inkscape.org/namespaces/inkscape"
   viewBox="0 0 32 32"
   version="1.1"
   id="svg4"
   sodipodi:docname="photoalbumdialog.svg"
   inkscape:export-filename="/home/jupiter007/Libreoffice yaru theme fullcolor/build/cmd/32/photoalbumdialog.png"
   inkscape:export-xdpi="95"
   inkscape:export-ydpi="95"
   inkscape:version="0.92.5 (2060ec1f9f, 2020-04-08)">
  <metadata
     id="metadata10">
    <rdf:RDF>
      <cc:Work
         rdf:about="">
        <dc:format>image/svg+xml</dc:format>
        <dc:type
           rdf:resource="http://purl.org/dc/dcmitype/StillImage" />
      </cc:Work>
    </rdf:RDF>
  </metadata>
  <defs
     id="defs8" />
  <sodipodi:namedview
     pagecolor="#ffffff"
     bordercolor="#666666"
     borderopacity="1"
     objecttolerance="10"
     gridtolerance="10"
     guidetolerance="10"
     inkscape:pageopacity="0"
     inkscape:pageshadow="2"
     inkscape:window-width="1920"
     inkscape:window-height="1011"
     id="namedview6"
     showgrid="true"
     inkscape:zoom="14.75"
     inkscape:cx="10.578379"
     inkscape:cy="13.110974"
     inkscape:window-x="0"
     inkscape:window-y="32"
     inkscape:window-maximized="1"
     inkscape:current-layer="svg4">
    <inkscape:grid
       type="xygrid"
       id="grid817" />
  </sodipodi:namedview>
  <path
     style="font-style:normal;font-variant:normal;font-weight:normal;font-stretch:normal;font-size:15px;line-height:125%;font-family:Ubuntu;-inkscape-font-specification:Ubuntu;text-align:center;letter-spacing:0px;word-spacing:0px;writing-mode:lr-tb;text-anchor:middle;display:inline;opacity:0.6;fill:#000000;fill-opacity:1;stroke:none;stroke-width:0.99980211"
     d="M 5.010772,1.97282 C 3.752572,1.98732 2.831881,1.94222 2.079131,2.357586 1.702761,2.565246 1.4059,2.916973 1.24124,3.355633 1.07657,3.794303 1.016631,4.31522 1.016631,4.97282 v 1.488282 16.512582 c 0,0.65761 0.0599,1.178577 0.224609,1.617188 0.16468,0.438611 0.461531,0.788524 0.837891,0.996093 0.75272,0.41513 1.673541,0.371649 2.931641,0.386719 h 0.002 18.005859 0.0039 c 1.25819,-0.0145 2.178891,0.0306 2.931641,-0.384766 0.37637,-0.20766 0.673221,-0.559386 0.837891,-0.998046 0.164539,-0.438671 0.224618,-0.959578 0.224618,-1.617188 V 6.439618 4.97282 c 0,-0.6576 -0.0599,-1.178577 -0.224609,-1.617187 C 26.627392,2.917033 26.330541,2.567099 25.954181,2.359539 25.201411,1.944409 24.28058,1.9879 23.02249,1.97282 h -0.002 -18.005859 z"
     id="path831"
     inkscape:connector-curvature="0"
     sodipodi:nodetypes="cccscsccccccccscscccccc" />
  <path
     sodipodi:nodetypes="cccccccscccccccc"
     style="opacity:1;vector-effect:none;fill:#d85eca;fill-opacity:1;stroke:none;stroke-width:1;stroke-linecap:round;stroke-linejoin:bevel;stroke-miterlimit:4;stroke-dasharray:none;stroke-dashoffset:0;stroke-opacity:1"
     d="M 10,3.000005 C 8.443419,3.010805 4.89001,2.988255 3.340059,3.038775 2.87883,3.081445 2.323871,3.245195 2.184719,3.748742 1.965725,4.384088 2.076305,5.082529 2.038923,5.730666 c -0.0078,2.297085 -0.02297,15.596709 0.02152,17.886061 0.0391,0.461929 0.202551,1.012666 0.698756,1.163666 0.632456,0.225082 1.284144,0.12274 1.935974,0.154298 1.424235,0.0068 4.850563,0.01102 6.27642,0.01131 1.704531,3.5e-4 11.408388,-0.005 13.10719,-0.01851 0.511911,-0.01201 1.183699,0.01993 1.584745,-0.405191 0.421097,-0.539783 0.287073,-1.268021 0.322745,-1.903787 0.01187,-2.444323 0.02769,-15.911375 -0.0219,-18.357075 C 25.915093,3.859398 25.794381,3.398486 25.389234,3.216963 24.721065,2.922865 23.963029,3.048944 23.263313,3.01139 21.508906,2.99959 11.754439,2.99891 10,3 Z"
     id="path833"
     inkscape:connector-curvature="0" />
  <path
     sodipodi:nodetypes="cccscsccccccccscscccccc"
     inkscape:connector-curvature="0"
     id="path4237-1"
     d="M 9,5.999859 C 7.7418,6.014359 6.821109,5.969259 6.068359,6.384625 5.691989,6.592285 5.395128,6.944012 5.230468,7.382672 5.065798,7.821342 5.005859,8.342259 5.005859,8.999859 v 1.488282 16.512582 c 0,0.65761 0.0599,1.178577 0.224609,1.617188 0.16468,0.438611 0.461531,0.788524 0.837891,0.996093 C 6.821079,30.029134 7.7419,29.985653 9,30.000723 h 0.002 18.005859 0.0039 c 1.25819,-0.0145 2.178891,0.0306 2.931641,-0.384766 0.37637,-0.20766 0.673221,-0.559386 0.837891,-0.998046 0.164539,-0.438671 0.224618,-0.959578 0.224618,-1.617188 V 10.466657 8.999859 c 0,-0.6576 -0.0599,-1.178577 -0.224609,-1.617187 -0.16468,-0.4386 -0.461531,-0.788534 -0.837891,-0.996094 -0.75277,-0.41513 -1.673601,-0.371639 -2.931691,-0.386719 h -0.002 -18.005859 z"
     style="font-style:normal;font-variant:normal;font-weight:normal;font-stretch:normal;font-size:15px;line-height:125%;font-family:Ubuntu;-inkscape-font-specification:Ubuntu;text-align:center;letter-spacing:0px;word-spacing:0px;writing-mode:lr-tb;text-anchor:middle;display:inline;opacity:0.6;fill:#000000;fill-opacity:1;stroke:none;stroke-width:0.99980211" />
  <path
     inkscape:connector-curvature="0"
     id="path1993"
     d="m 13.989228,7.027044 c -1.556581,0.0108 -5.10999,-0.01175 -6.659941,0.03877 -0.461229,0.04267 -1.016188,0.20642 -1.15534,0.709967 -0.218994,0.635346 -0.108414,1.333787 -0.145796,1.981924 -0.0078,2.297085 -0.02297,15.596709 0.02152,17.886061 0.0391,0.461929 0.202551,1.012666 0.698756,1.163666 0.632456,0.225082 1.284144,0.12274 1.935974,0.154298 1.424235,0.0068 4.850563,0.01102 6.27642,0.01131 1.704531,3.5e-4 11.408388,-0.005 13.10719,-0.01851 0.511911,-0.01201 1.183699,0.01993 1.584745,-0.405191 0.421097,-0.539783 0.287073,-1.268021 0.322745,-1.903787 0.01187,-2.444323 0.02769,-15.911375 -0.0219,-18.357075 C 29.904321,7.886437 29.783609,7.425525 29.378462,7.244002 28.710293,6.949904 27.952257,7.075983 27.252541,7.038429 25.498134,7.026629 15.743667,7.025949 13.989228,7.027039 Z"
     style="opacity:1;vector-effect:none;fill:#d85eca;fill-opacity:1;stroke:none;stroke-width:1;stroke-linecap:round;stroke-linejoin:bevel;stroke-miterlimit:4;stroke-dasharray:none;stroke-dashoffset:0;stroke-opacity:1"
     sodipodi:nodetypes="cccccccscccccccc" />
  <path
     style="color:#000000;display:inline;overflow:visible;visibility:visible;opacity:1;fill:#ffffff;fill-opacity:1;fill-rule:nonzero;stroke:none;stroke-width:18.28524208;marker:none;enable-background:accumulate"
     d="M 14,16 9,26 h 18 l -6,-7 -3,3 z"
     id="path1099"
     inkscape:connector-curvature="0"
     sodipodi:nodetypes="cccccc" />
  <path
     style="opacity:1;vector-effect:none;fill:#ffffff;fill-opacity:1;stroke:none;stroke-width:4.02895594;stroke-linecap:round;stroke-linejoin:bevel;stroke-miterlimit:4;stroke-dasharray:none;stroke-dashoffset:0;stroke-opacity:1"
     id="path3397"
     sodipodi:type="arc"
     sodipodi:cx="24.014479"
     sodipodi:cy="11.985523"
     sodipodi:rx="2.014478"
     sodipodi:ry="2.014478"
     sodipodi:start="6.2325882"
     sodipodi:end="6.2319424"
     sodipodi:open="true"
     d="m 26.026379,11.88364 a 2.014478,2.014478 0 0 1 -1.909692,2.113767 2.014478,2.014478 0 0 1 -2.114075,-1.909351 2.014478,2.014478 0 0 1 1.909009,-2.1143831 2.014478,2.014478 0 0 1 2.114691,1.9086681" />
</svg>

<svg xmlns="http://www.w3.org/2000/svg" viewBox="0 0 32 32"><path style="line-height:125%;-inkscape-font-specification:Ubuntu;text-align:center" d="M5.01 1.973c-1.257.014-2.178-.03-2.93.385a1.88 1.88 0 00-.839.998c-.164.438-.224.96-.224 1.617v18.001c0 .657.06 1.178.224 1.617.165.438.462.788.838.996.753.415 1.674.372 2.932.387h18.012c1.258-.015 2.178.03 2.931-.385a1.88 1.88 0 00.838-.998c.165-.439.225-.96.225-1.617V4.973c0-.658-.06-1.179-.225-1.617a1.875 1.875 0 00-.838-.996c-.753-.416-1.673-.372-2.932-.387H5.015z" font-weight="400" font-size="15" font-family="Ubuntu" letter-spacing="0" word-spacing="0" text-anchor="middle" opacity=".6"/><path d="M10 3c-1.557.01-5.11-.012-6.66.039-.461.042-1.016.206-1.155.71-.22.635-.109 1.334-.146 1.982-.008 2.297-.023 15.596.021 17.886.04.462.203 1.012.7 1.163.632.225 1.283.123 1.935.155 1.424.006 4.85.01 6.277.011 1.704 0 11.408-.005 13.107-.019.512-.012 1.183.02 1.585-.405.42-.54.287-1.268.322-1.903.012-2.445.028-15.912-.022-18.358-.049-.402-.17-.863-.575-1.044-.668-.294-1.426-.168-2.126-.206C21.51 3 11.754 3 10 3z" fill="#d85eca"/><path d="M9 6c-1.258.014-2.179-.03-2.932.385a1.88 1.88 0 00-.838.998c-.164.438-.224.96-.224 1.617V27c0 .657.06 1.178.224 1.617.165.439.462.788.838.996.753.415 1.674.372 2.932.387h18.012c1.258-.015 2.179.03 2.931-.385a1.88 1.88 0 00.838-.998c.165-.439.225-.96.225-1.617V9c0-.658-.06-1.179-.225-1.617a1.875 1.875 0 00-.838-.996c-.752-.416-1.673-.372-2.931-.387H9.004z" style="line-height:125%;-inkscape-font-specification:Ubuntu;text-align:center" font-weight="400" font-size="15" font-family="Ubuntu" letter-spacing="0" word-spacing="0" text-anchor="middle" opacity=".6"/><path d="M13.99 7.027c-1.557.01-5.11-.012-6.66.039-.462.042-1.017.206-1.156.71-.219.635-.108 1.334-.146 1.982-.008 2.297-.023 15.596.022 17.886.039.462.202 1.012.698 1.163.633.226 1.285.123 1.936.155 1.425.007 4.851.01 6.277.011 1.704 0 11.408-.005 13.107-.018.512-.012 1.184.02 1.585-.406.42-.54.287-1.268.323-1.903.011-2.445.027-15.912-.022-18.358-.05-.402-.17-.862-.576-1.044-.668-.294-1.426-.168-2.125-.206-1.755-.011-11.51-.012-13.264-.011z" fill="#d85eca"/><path style="marker:none" d="M14 16L9 26h18l-6-7-3 3z" color="#000" overflow="visible" fill="#fff"/><path d="M26.026 11.884a2.014 2.014 0 01-1.91 2.113 2.014 2.014 0 01-2.113-1.909 2.014 2.014 0 011.909-2.114 2.014 2.014 0 012.114 1.908" fill="#fff"/></svg>
